X: 1
T: Prince Charlie   [Em]
T: Prionns Tearlach
R: reel
D: Natalie MacMaster, LIVE, 2002
O: 18th C Scotland
B: Original setting in Simon Fraser Collection
B: Athole Collection
Z: Paul Stewart Cranford (P.S.C.), <http://www.cranfordpub.com>
F: http://cranfordpub.com/tunes/abcs/natalie.abc
L: 1/8
M: C|
K: Edor
B |\
"Em"E2 EF B2 Bc | "D"d2 AG FDDF | "Em"E2EF B2Bc | "D"d2AF  "Em"E2B2 |
"Em"E2 EF B2 Bc | "D"d2 AG FDDF | "Em"E2GA B2Ba |"B7"gef^d "Em"e2e |]
f |\
"Em"eBef geBg | "D"fbag fddf | "Em"eBef    g2eg |"Bm"bgaf "Em"e2ef |
"Em"eBef geBg | "D"fdAG FDDf | "Em"geBg "D"Af"Em"Ge | "B(m)"FdAF "Em"E2E |]
